_src/static/img/sprite/teleg.svg

<svg width="19" height="16" viewBox="0 0 19 16" fill="none" xmlns="http://www.w3.org/2000/svg">
<path d="M18.4004 1.36766C18.3558 2.01205 17.9857 4.27062 17.6157 6.7142L16.4609 13.9493C16.4609 13.9493 16.3716 15.0084 15.5868 15.1934C14.802 15.3784 13.5133 14.549 13.2836 14.364C13.0986 14.2236 9.82555 12.1501 8.62609 11.1356C8.3007 10.8613 7.93704 10.3062 8.67075 9.66182C10.3296 8.14335 12.3138 6.24846 13.5133 5.04899C14.0683 4.49392 14.617 3.20513 12.3138 4.77464L5.81246 9.15141C5.81246 9.15141 5.07236 9.61078 3.69425 9.19607C2.30977 8.78137 0.695596 8.22629 0.695596 8.22629C0.695596 8.22629 -0.408167 7.53724 1.48035 6.79714L12.2245 2.36934C13.2836 1.90997 16.882 0.43616 16.882 0.43616C16.882 0.43616 18.5408 -0.201854 18.4004 1.36766Z" fill="#1B3ACD"/>
</svg>

<svg width="19" height="16" fill="none" xmlns="http://www.w3.org/2000/svg"><path d="M18.4 1.368c-.044.644-.414 2.903-.784 5.346L16.46 13.95s-.09 1.06-.874 1.244c-.785.185-2.074-.644-2.303-.829-.185-.14-3.458-2.214-4.658-3.228-.325-.275-.689-.83.045-1.474a173.027 173.027 0 004.842-4.613c.555-.555 1.104-1.844-1.2-.274l-6.5 4.376s-.74.46-2.119.045C2.31 8.781.696 8.226.696 8.226s-1.104-.689.784-1.429L12.225 2.37c1.059-.46 4.657-1.934 4.657-1.934s1.659-.638 1.518.932z" fill="#1B3ACD"/></svg>
